X:199
T: Humours of Cork
N: O'Farrell's Pocket Companion v.3 (Sky ed. p.102)
N: "Irish"
M: 6/8
R: jig
L: 1/8
Q: 320
K: G
e|dBG GAG| GFG ABc| BAG dcB| ece efg|
dBG GFG| ABc Bcd| efg dec| BGG G2 :|
d|g2b e2g| dcB ABc| BAG dcB| ece efg|
dBG GFG| ABc Bcd| efg dec| BGG G2 :|
